img/footer-logo.svg

<svg width="39" height="39" viewBox="0 0 39 39" fill="none" xmlns="http://www.w3.org/2000/svg">
<path fill-rule="evenodd" clip-rule="evenodd" d="M19.5 39C30.2696 39 39 30.2695 39 19.5C39 8.73047 30.2696 0 19.5 0C8.73044 0 0 8.73047 0 19.5C0 30.2695 8.73044 39 19.5 39ZM37.5 19.5C37.5 29.4412 29.4411 37.5 19.5 37.5C9.55887 37.5 1.5 29.4412 1.5 19.5C1.5 9.55884 9.55887 1.5 19.5 1.5C29.4411 1.5 37.5 9.55884 37.5 19.5ZM26.7233 17.2419C26.722 17.168 26.7194 17.094 26.7143 17.02C27.3916 16.5293 27.977 15.9219 28.4417 15.2246C27.8104 15.5054 27.14 15.6892 26.4538 15.7703C27.1763 15.3372 27.7172 14.6558 27.9756 13.8535C27.2956 14.2571 26.5526 14.5417 25.7773 14.6948C24.4666 13.2996 22.2737 13.2324 20.8795 14.5447C19.9801 15.3906 19.599 16.6521 19.878 17.856C17.0942 17.7166 14.501 16.4001 12.7435 14.2351C11.8249 15.8191 12.2938 17.845 13.8149 18.8625C13.2638 18.8462 12.725 18.6973 12.2437 18.429V18.4729C12.2437 20.1226 13.4056 21.5432 15.0207 21.8699C14.5113 22.0093 13.9767 22.0298 13.4577 21.9294C13.9115 23.3413 15.2105 24.3081 16.6919 24.3364C15.4655 25.3005 13.9513 25.8242 12.3925 25.8228C12.1169 25.822 11.8421 25.8057 11.5685 25.7727C13.152 26.7898 14.9939 27.3291 16.8749 27.3264V27.3291C23.2423 27.3291 26.7246 22.0476 26.7246 17.468C26.7246 17.3923 26.7246 17.3171 26.7233 17.2419Z" fill="white"/>
</svg>

<svg width="39" height="39" fill="none" xmlns="http://www.w3.org/2000/svg"><path fill-rule="evenodd" clip-rule="evenodd" d="M19.5 39C30.27 39 39 30.27 39 19.5S30.27 0 19.5 0 0 8.73 0 19.5 8.73 39 19.5 39zm18-19.5c0 9.941-8.059 18-18 18s-18-8.059-18-18 8.059-18 18-18 18 8.059 18 18zm-10.777-2.258a4.335 4.335 0 00-.009-.222 7.035 7.035 0 001.728-1.795 6.878 6.878 0 01-1.988.545 3.478 3.478 0 001.522-1.916 6.94 6.94 0 01-2.199.84 3.463 3.463 0 00-4.898-.15 3.47 3.47 0 00-1.001 3.312 9.822 9.822 0 01-7.135-3.62 3.472 3.472 0 001.072 4.627 3.436 3.436 0 01-1.571-.434v.044c0 1.65 1.162 3.07 2.777 3.397-.51.14-1.044.16-1.563.06a3.467 3.467 0 003.234 2.406 6.947 6.947 0 01-5.123 1.437 9.792 9.792 0 005.306 1.553v.003c6.367 0 9.85-5.281 9.85-9.861 0-.076 0-.15-.002-.226z" fill="#fff"/></svg>
